src/icons/law.svg

<svg width="16" height="16" viewBox="0 0 16 16" fill="none" xmlns="http://www.w3.org/2000/svg">
<path d="M14.63 7L13 3H14V2H9V1H8V2H3V3H4L2.38 7H2V8H2.15C2.30639 8.49791 2.62276 8.93028 3.05 9.23C3.47165 9.53576 3.97916 9.7004 4.5 9.7004C5.02084 9.7004 5.52835 9.53576 5.95 9.23C6.37736 8.92817 6.69638 8.49696 6.86 8H7V7H6.55L4.88 3H8V11H6L5.61 11.18L3.61 13.69L4 14.5H13L13.39 13.69L11.39 11.18L11 11H9V3H12.13L10.46 7H10V8H10.15C10.3136 8.49544 10.6292 8.92668 11.052 9.23236C11.4748 9.53804 11.9833 9.70258 12.505 9.70258C13.0267 9.70258 13.5352 9.53804 13.958 9.23236C14.3808 8.92668 14.6964 8.49544 14.86 8H15V7H14.63ZM5.22 8.51C4.99947 8.63205 4.75204 8.69734 4.5 8.7C4.25094 8.69869 4.00642 8.63326 3.79 8.51C3.56931 8.38903 3.38338 8.21342 3.25 8H5.75C5.61775 8.21083 5.43575 8.38595 5.22 8.51ZM5.47 7H3.47L4.47 4.6L5.47 7ZM10.76 12L12 13.5H5L6.24 12H10.76ZM12.54 4.62L13.54 7.02H11.54L12.54 4.62ZM13.22 8.53C13.0014 8.65671 12.7527 8.72233 12.5 8.72C12.2503 8.72355 12.0045 8.65778 11.79 8.53C11.569 8.40065 11.3835 8.21856 11.25 8H13.75C13.626 8.2225 13.4425 8.40604 13.22 8.53Z" fill="white"/>
</svg>

<svg width="16" height="16" xmlns="http://www.w3.org/2000/svg"><path d="M14.63 7L13 3h1V2H9V1H8v1H3v1h1L2.38 7H2v1h.15c.156.498.473.93.9 1.23a2.47 2.47 0 0 0 2.9 0A2.44 2.44 0 0 0 6.86 8H7V7h-.45L4.88 3H8v8H6l-.39.18-2 2.51.39.81h9l.39-.81-2-2.51L11 11H9V3h3.13l-1.67 4H10v1h.15a2.48 2.48 0 0 0 4.71 0H15V7h-.37zM5.22 8.51a1.52 1.52 0 0 1-.72.19 1.45 1.45 0 0 1-.71-.19A1.47 1.47 0 0 1 3.25 8h2.5a1.52 1.52 0 0 1-.53.51zM5.47 7h-2l1-2.4 1 2.4zm5.29 5L12 13.5H5L6.24 12h4.52zm1.78-7.38l1 2.4h-2l1-2.4zm.68 3.91a1.41 1.41 0 0 1-.72.19 1.35 1.35 0 0 1-.71-.19 1.55 1.55 0 0 1-.54-.53h2.5a1.37 1.37 0 0 1-.53.53z"/></svg>
